app/assets/images/icons/active/bureau-de-change.svg

<?xml version="1.0" encoding="UTF-8" standalone="no"?>
<svg width="32px" height="232px" viewBox="0 0 32 232" version="1.1" xmlns="http://www.w3.org/2000/svg" xmlns:xlink="http://www.w3.org/1999/xlink" xmlns:sketch="http://www.bohemiancoding.com/sketch/ns">
    <title>bureau-de-change</title>
    <description>Created with Sketch (http://www.bohemiancoding.com/sketch)</description>
    <defs></defs>
    <g id="Hotel-facilities" stroke="none" stroke-width="1" fill="none" fill-rule="evenodd" sketch:type="MSPage">
        <path d="M14.5344922,147.542 L14.5344922,150 L17.8764441,150 L17.8764441,147.542 C23.1245462,147.009 25,144.049 25,140.793 C25,136.648 22.0679943,135.108 17.7595995,134.131 L17.7595995,129.424 C18.9607218,129.928 19.7528881,130.874 20.4866322,131.911 L24.2959622,129.098 C22.9185829,127.174 21.1589834,125.576 17.8764441,125.101 L17.8764441,123 L14.5344922,123 L14.5344922,125.012 C10.3419518,125.369 7.5862031,127.825 7.5862031,131.822 C7.5862031,136.174 11.0756959,137.535 14.7107493,138.393 L14.7107493,143.486 C13.0105622,143.012 12.0421388,141.679 10.8707229,140.141 L7,142.628 C8.64275498,145.232 10.7835846,147.128 14.5344922,147.542 C14.5344922,147.542 10.7835846,147.128 14.5344922,147.542 L14.5344922,147.542 L14.5344922,147.542 Z M14.7107493,129.128 L14.7107493,133.391 C13.4205083,132.947 12.8630212,132.414 12.8630212,131.289 C12.8630212,130.222 13.4502145,129.394 14.7107493,129.128 C14.7107493,129.128 13.4502145,129.394 14.7107493,129.128 L14.7107493,129.128 L14.7107493,129.128 Z M17.7595995,143.575 L17.7595995,139.193 C19.2241171,139.697 19.7221917,140.318 19.7221917,141.354 C19.7221917,142.538 19.195401,143.279 17.7595995,143.575 L17.7595995,143.575 Z M17.7595995,143.575" id="bureau-de-change--white" fill="#206FAC" sketch:type="MSShapeGroup"></path>
        <path d="M14.5344922,107.542 L14.5344922,110 L17.8764441,110 L17.8764441,107.542 C23.1245462,107.009 25,104.049 25,100.793 C25,96.648 22.0679943,95.108 17.7595995,94.131 L17.7595995,89.424 C18.9607218,89.928 19.7528881,90.874 20.4866322,91.911 L24.2959622,89.098 C22.9185829,87.174 21.1589834,85.576 17.8764441,85.101 L17.8764441,83 L14.5344922,83 L14.5344922,85.012 C10.3419518,85.369 7.5862031,87.825 7.5862031,91.822 C7.5862031,96.174 11.0756959,97.535 14.7107493,98.393 L14.7107493,103.486 C13.0105622,103.012 12.0421388,101.679 10.8707229,100.141 L7,102.628 C8.64275498,105.232 10.7835846,107.128 14.5344922,107.542 C14.5344922,107.542 10.7835846,107.128 14.5344922,107.542 L14.5344922,107.542 L14.5344922,107.542 Z M14.7107493,89.128 L14.7107493,93.391 C13.4205083,92.947 12.8630212,92.414 12.8630212,91.289 C12.8630212,90.222 13.4502145,89.394 14.7107493,89.128 C14.7107493,89.128 13.4502145,89.394 14.7107493,89.128 L14.7107493,89.128 L14.7107493,89.128 Z M17.7595995,103.575 L17.7595995,99.193 C19.2241171,99.697 19.7221917,100.318 19.7221917,101.354 C19.7221917,102.538 19.195401,103.279 17.7595995,103.575 L17.7595995,103.575 Z M17.7595995,103.575" id="bureau-de-change--white" fill="#FFFFFF" sketch:type="MSShapeGroup"></path>
        <path d="M14.5344922,67.542 L14.5344922,70 L17.8764441,70 L17.8764441,67.542 C23.1245462,67.009 25,64.049 25,60.793 C25,56.648 22.0679943,55.108 17.7595995,54.131 L17.7595995,49.424 C18.9607218,49.928 19.7528881,50.874 20.4866322,51.911 L24.2959622,49.098 C22.9185829,47.174 21.1589834,45.576 17.8764441,45.101 L17.8764441,43 L14.5344922,43 L14.5344922,45.012 C10.3419518,45.369 7.5862031,47.825 7.5862031,51.822 C7.5862031,56.174 11.0756959,57.535 14.7107493,58.393 L14.7107493,63.486 C13.0105622,63.012 12.0421388,61.679 10.8707229,60.141 L7,62.628 C8.64275498,65.232 10.7835846,67.128 14.5344922,67.542 C14.5344922,67.542 10.7835846,67.128 14.5344922,67.542 L14.5344922,67.542 L14.5344922,67.542 Z M14.7107493,49.128 L14.7107493,53.391 C13.4205083,52.947 12.8630212,52.414 12.8630212,51.289 C12.8630212,50.222 13.4502145,49.394 14.7107493,49.128 C14.7107493,49.128 13.4502145,49.394 14.7107493,49.128 L14.7107493,49.128 L14.7107493,49.128 Z M17.7595995,63.575 L17.7595995,59.193 C19.2241171,59.697 19.7221917,60.318 19.7221917,61.354 C19.7221917,62.538 19.195401,63.279 17.7595995,63.575 L17.7595995,63.575 Z M17.7595995,63.575" id="bureau-de-change--light-grey" fill="#67737B" sketch:type="MSShapeGroup"></path>
        <path d="M14.5344922,27.542 L14.5344922,30 L17.8764441,30 L17.8764441,27.542 C23.1245462,27.009 25,24.049 25,20.793 C25,16.648 22.0679943,15.108 17.7595995,14.131 L17.7595995,9.424 C18.9607218,9.928 19.7528881,10.874 20.4866322,11.911 L24.2959622,9.098 C22.9185829,7.174 21.1589834,5.576 17.8764441,5.101 L17.8764441,3 L14.5344922,3 L14.5344922,5.012 C10.3419518,5.369 7.5862031,7.825 7.5862031,11.822 C7.5862031,16.174 11.0756959,17.535 14.7107493,18.393 L14.7107493,23.486 C13.0105622,23.012 12.0421388,21.679 10.8707229,20.141 L7,22.628 C8.64275498,25.232 10.7835846,27.128 14.5344922,27.542 C14.5344922,27.542 10.7835846,27.128 14.5344922,27.542 L14.5344922,27.542 L14.5344922,27.542 Z M14.7107493,9.128 L14.7107493,13.391 C13.4205083,12.947 12.8630212,12.414 12.8630212,11.289 C12.8630212,10.222 13.4502145,9.394 14.7107493,9.128 C14.7107493,9.128 13.4502145,9.394 14.7107493,9.128 L14.7107493,9.128 L14.7107493,9.128 Z M17.7595995,23.575 L17.7595995,19.193 C19.2241171,19.697 19.7221917,20.318 19.7221917,21.354 C19.7221917,22.538 19.195401,23.279 17.7595995,23.575 L17.7595995,23.575 Z M17.7595995,23.575" id="bureau-de-change--dark-grey" fill="#3A434E" sketch:type="MSShapeGroup"></path>
    </g>
</svg>

<svg width="32" height="232" viewBox="0 0 32 232" xmlns="http://www.w3.org/2000/svg" xmlns:sketch="http://www.bohemiancoding.com/sketch/ns"><title>bureau-de-change</title><g sketch:type="MSPage" fill="none"><path d="M14.534 147.542v2.458h3.342v-2.458c5.248-.533 7.124-3.493 7.124-6.749 0-4.145-2.932-5.685-7.24-6.662v-4.707c1.201.504 1.993 1.45 2.727 2.487l3.809-2.813c-1.377-1.924-3.137-3.522-6.42-3.997v-2.101h-3.342v2.012c-4.193.357-6.948 2.813-6.948 6.81 0 4.352 3.489 5.713 7.125 6.571v5.093c-1.7-.474-2.669-1.807-3.84-3.345l-3.871 2.487c1.643 2.604 3.784 4.5 7.534 4.914zm.176-18.414v4.263c-1.29-.444-1.848-.977-1.848-2.102 0-1.067.587-1.895 1.848-2.161zm3.049 14.447v-4.382c1.465.504 1.963 1.125 1.963 2.161 0 1.184-.527 1.925-1.963 2.221zm0 0" id="bureau-de-change--white" fill="#206FAC" sketch:type="MSShapeGroup"/><path d="M14.534 107.542v2.458h3.342v-2.458c5.248-.533 7.124-3.493 7.124-6.749 0-4.145-2.932-5.685-7.24-6.662v-4.707c1.201.504 1.993 1.45 2.727 2.487l3.809-2.813c-1.377-1.924-3.137-3.522-6.42-3.997v-2.101h-3.342v2.012c-4.193.357-6.948 2.813-6.948 6.81 0 4.352 3.489 5.713 7.125 6.571v5.093c-1.7-.474-2.669-1.807-3.84-3.345l-3.871 2.487c1.643 2.604 3.784 4.5 7.534 4.914zm.176-18.414v4.263c-1.29-.444-1.848-.977-1.848-2.102 0-1.067.587-1.895 1.848-2.161zm3.049 14.447v-4.382c1.465.504 1.963 1.125 1.963 2.161 0 1.184-.527 1.925-1.963 2.221zm0 0" fill="#fff" sketch:type="MSShapeGroup"/><path d="M14.534 67.542v2.458h3.342v-2.458c5.248-.533 7.124-3.493 7.124-6.749 0-4.145-2.932-5.685-7.24-6.662v-4.707c1.201.504 1.993 1.45 2.727 2.487l3.809-2.813c-1.377-1.924-3.137-3.522-6.42-3.997v-2.101h-3.342v2.012c-4.193.357-6.948 2.813-6.948 6.81 0 4.352 3.489 5.713 7.125 6.571v5.093c-1.7-.474-2.669-1.807-3.84-3.345l-3.871 2.487c1.643 2.604 3.784 4.5 7.534 4.914zm.176-18.414v4.263c-1.29-.444-1.848-.977-1.848-2.102 0-1.067.587-1.895 1.848-2.161zm3.049 14.447v-4.382c1.465.504 1.963 1.125 1.963 2.161 0 1.184-.527 1.925-1.963 2.221zm0 0" fill="#67737B" sketch:type="MSShapeGroup"/><path d="M14.534 27.542v2.458h3.342v-2.458c5.248-.533 7.124-3.493 7.124-6.749 0-4.145-2.932-5.685-7.24-6.662v-4.707c1.201.504 1.993 1.45 2.727 2.487l3.809-2.813c-1.377-1.924-3.137-3.522-6.42-3.997v-2.101h-3.342v2.012c-4.193.357-6.948 2.813-6.948 6.81 0 4.352 3.489 5.713 7.125 6.571v5.093c-1.7-.474-2.669-1.807-3.84-3.345l-3.871 2.487c1.643 2.604 3.784 4.5 7.534 4.914zm.176-18.414v4.263c-1.29-.444-1.848-.977-1.848-2.102 0-1.067.587-1.895 1.848-2.161zm3.049 14.447v-4.382c1.465.504 1.963 1.125 1.963 2.161 0 1.184-.527 1.925-1.963 2.221zm0 0" fill="#3A434E" sketch:type="MSShapeGroup"/></g></svg>
